X: 39654
T: Templehouse, The
R: reel
M: 4/4
K: Edorian
|:EFGA {_B}B2 AF|D(E (3FED) ADFD|EFGA BE{G}ED|B2Ac BE{G}ED|
EFGA BF{c}AF|D3F AD (3 FED|EFGA BE~E2|(3Bcd Ac Bee2:|
|:gfef {a}g{fa}feg|{fa}fdde {a}fdd2|gfef {a}g{fa}fed|BdAc Beef|
gfef {a}gfeg|{fa}fedc dfaf|~e3f {a}gfed|B2Ac BE{G}ED:|

